svg/azure-vpn.svg

<?xml version="1.0" encoding="UTF-8"?>
<svg xmlns="http://www.w3.org/2000/svg" xmlns:xlink="http://www.w3.org/1999/xlink" width="32" height="32" viewBox="0 0 32 32">
<defs>
<filter id="filter-remove-color" x="0%" y="0%" width="100%" height="100%">
<feColorMatrix color-interpolation-filters="sRGB" values="0 0 0 0 1 0 0 0 0 1 0 0 0 0 1 0 0 0 1 0" />
</filter>
<linearGradient id="linear-pattern-0" gradientUnits="userSpaceOnUse" x1="8.59" y1="-7.79" x2="9.12" y2="20.049999" gradientTransform="matrix(1.777778, 0.00266842, -0.00266842, 1.777778, 0, 0)">
<stop offset="0.22" stop-color="rgb(19.607843%, 83.137255%, 96.078431%)" stop-opacity="1"/>
<stop offset="0.47" stop-color="rgb(19.215686%, 81.960784%, 95.294118%)" stop-opacity="1"/>
<stop offset="0.63" stop-color="rgb(18.039216%, 78.823529%, 92.156863%)" stop-opacity="1"/>
<stop offset="0.77" stop-color="rgb(16.078431%, 72.941176%, 87.058824%)" stop-opacity="1"/>
<stop offset="0.89" stop-color="rgb(13.333333%, 64.705882%, 79.607843%)" stop-opacity="1"/>
<stop offset="1" stop-color="rgb(9.803922%, 54.117647%, 70.196078%)" stop-opacity="1"/>
<stop offset="1" stop-color="rgb(9.803922%, 54.117647%, 70.196078%)" stop-opacity="1"/>
</linearGradient>
<image id="source-18" x="0" y="0" width="32" height="32" xlink:href="data:image/png;base64,iVBORw0KGgoAAAANSUhEUgAAACAAAAAgCAYAAABzenr0AAAABmJLR0QA/wD/AP+gvaeTAAAAVElEQVRYhe3OMQ6AIBAAwcWYqM/g/6/yFXRohblQ2J2NOw0cFLcgSdLflXCvwDa9ZbiABpwAa/jYgSN5+QjoY4gBZTozPTuWD5a9MsAAAwwwwAADbnzFBTkxJWSdAAAAAElFTkSuQmCC"/>
<mask id="mask-0">
<g filter="url(#filter-remove-color)">
<use xlink:href="#source-18"/>
</g>
</mask>
<clipPath id="clip-0">
<rect x="0" y="0" width="32" height="32"/>
</clipPath>
<g id="source-17" clip-path="url(#clip-0)">
<path fill-rule="nonzero" fill="rgb(100%, 100%, 100%)" fill-opacity="1" d="M 5.226562 15.414062 L 26.84375 15.414062 C 27.136719 15.417969 27.421875 15.523438 27.644531 15.714844 L 4.425781 31.714844 C 4.152344 31.484375 3.992188 31.148438 3.980469 30.792969 L 3.980469 16.570312 C 4.042969 15.925781 4.578125 15.425781 5.226562 15.414062 "/>
</g>
<clipPath id="clip-1">
<rect x="0" y="0" width="32" height="32"/>
</clipPath>
<g id="source-20" clip-path="url(#clip-1)">
<g mask="url(#mask-0)">
<use xlink:href="#source-17"/>
</g>
</g>
</defs>
<path fill-rule="nonzero" fill="url(#linear-pattern-0)" d="M 26.773438 15.414062 L 24.996094 15.414062 L 24.996094 9.9375 C 25.011719 7.367188 24.066406 4.882812 22.347656 2.96875 C 20.71875 1.074219 18.339844 -0.0117188 15.839844 0 C 13.316406 -0.0351562 10.90625 1.054688 9.261719 2.96875 C 7.53125 4.875 6.585938 7.363281 6.613281 9.9375 L 6.613281 15.414062 L 5.171875 15.414062 C 4.5 15.421875 3.953125 15.96875 3.945312 16.640625 L 3.945312 30.863281 C 3.957031 31.535156 4.5 32.078125 5.171875 32.089844 L 26.773438 32.089844 C 27.449219 32.078125 28 31.539062 28.019531 30.863281 L 28.019531 16.640625 C 28 15.964844 27.449219 15.421875 26.773438 15.414062 M 20.78125 15.414062 L 10.898438 15.414062 L 10.898438 9.847656 C 10.914062 8.425781 11.464844 7.0625 12.445312 6.027344 C 13.289062 5.0625 14.503906 4.503906 15.785156 4.496094 C 17.074219 4.503906 18.296875 5.0625 19.148438 6.027344 C 19.355469 6.265625 19.546875 6.519531 19.714844 6.792969 C 20.382812 7.667969 20.761719 8.730469 20.800781 9.832031 Z M 20.78125 15.414062 "/>
<path fill-rule="nonzero" fill="rgb(31.372549%, 90.196078%, 100%)" fill-opacity="1" d="M 26.828125 15.414062 L 5.191406 15.414062 C 4.902344 15.414062 4.625 15.523438 4.410156 15.714844 L 27.609375 31.714844 C 27.890625 31.492188 28.050781 31.152344 28.054688 30.792969 L 28.054688 16.570312 C 28 15.929688 27.472656 15.429688 26.828125 15.414062 "/>
<use xlink:href="#source-20"/>
<path fill-rule="nonzero" fill="rgb(100%, 100%, 100%)" fill-opacity="1" d="M 13.867188 18.84375 L 16 16.710938 C 16.046875 16.671875 16.113281 16.671875 16.160156 16.710938 L 18.277344 18.84375 C 18.304688 18.863281 18.324219 18.898438 18.324219 18.933594 C 18.324219 18.96875 18.304688 19.003906 18.277344 19.023438 L 17.03125 19.023438 C 16.972656 19.023438 16.925781 19.070312 16.925781 19.128906 L 16.925781 21.867188 C 16.925781 21.925781 16.875 21.972656 16.816406 21.972656 L 15.414062 21.972656 C 15.382812 21.980469 15.351562 21.972656 15.332031 21.949219 C 15.308594 21.925781 15.300781 21.894531 15.308594 21.867188 L 15.308594 19.128906 C 15.300781 19.070312 15.246094 19.023438 15.183594 19.023438 L 13.9375 19.023438 C 13.898438 19.019531 13.863281 18.996094 13.847656 18.957031 C 13.832031 18.917969 13.839844 18.875 13.867188 18.84375 M 18.257812 28.585938 L 16.140625 30.703125 C 16.121094 30.726562 16.09375 30.738281 16.0625 30.738281 C 16.03125 30.742188 16 30.726562 15.980469 30.703125 L 13.867188 28.585938 C 13.835938 28.570312 13.816406 28.535156 13.820312 28.496094 C 13.820312 28.464844 13.835938 28.433594 13.867188 28.410156 L 15.109375 28.410156 C 15.171875 28.410156 15.226562 28.363281 15.234375 28.300781 L 15.234375 25.546875 C 15.234375 25.488281 15.285156 25.441406 15.34375 25.441406 L 16.65625 25.441406 C 16.714844 25.441406 16.765625 25.488281 16.765625 25.546875 L 16.765625 28.300781 C 16.765625 28.359375 16.8125 28.410156 16.871094 28.410156 L 18.117188 28.410156 C 18.164062 28.371094 18.234375 28.378906 18.277344 28.425781 C 18.296875 28.449219 18.304688 28.480469 18.300781 28.507812 C 18.296875 28.539062 18.28125 28.566406 18.257812 28.585938 M 9.902344 25.832031 L 9.902344 24.585938 C 9.902344 24.558594 9.890625 24.53125 9.871094 24.511719 C 9.851562 24.488281 9.824219 24.480469 9.796875 24.480469 L 7.109375 24.480469 C 7.050781 24.480469 7.003906 24.433594 7.003906 24.375 L 7.003906 23.109375 C 6.984375 23.074219 6.984375 23.027344 7.007812 22.996094 C 7.03125 22.964844 7.070312 22.945312 7.109375 22.949219 L 9.796875 22.949219 C 9.855469 22.949219 9.902344 22.902344 9.902344 22.84375 L 9.902344 21.601562 C 9.90625 21.558594 9.933594 21.519531 9.972656 21.5 C 10.011719 21.480469 10.0625 21.484375 10.097656 21.511719 L 12.214844 23.644531 C 12.25 23.683594 12.25 23.742188 12.214844 23.785156 L 10.097656 25.921875 C 10.058594 25.945312 10.011719 25.949219 9.972656 25.929688 C 9.933594 25.910156 9.90625 25.875 9.902344 25.832031 M 22.222656 21.601562 L 22.222656 22.84375 C 22.222656 22.902344 22.269531 22.949219 22.328125 22.949219 L 25.066406 22.949219 C 25.066406 22.949219 25.191406 22.949219 25.191406 23.058594 L 25.191406 24.375 C 25.179688 24.433594 25.125 24.476562 25.066406 24.480469 L 22.328125 24.480469 C 22.269531 24.480469 22.222656 24.527344 22.222656 24.585938 L 22.222656 25.832031 C 22.226562 25.875 22.203125 25.914062 22.164062 25.9375 C 22.125 25.953125 22.078125 25.949219 22.042969 25.921875 L 19.929688 23.785156 L 19.929688 23.644531 L 22.042969 21.511719 C 22.042969 21.511719 22.222656 21.492188 22.222656 21.601562 "/>
</svg>

<svg role="img" viewBox="0 0 32 32" xmlns="http://www.w3.org/2000/svg"><defs><clipPath id="azure-vpn_svg__a"><path d="M0 0h32v32H0z"/></clipPath><clipPath id="azure-vpn_svg__b"><path d="M0 0h32v32H0z"/></clipPath><g clip-path="url(#azure-vpn_svg__a)" id="azure-vpn_svg__d"><path d="M5.227 15.414h21.617c.293.004.578.11.8.3l-23.218 16a1.26 1.26 0 0 1-.446-.921V16.57a1.285 1.285 0 0 1 1.247-1.156" fill="rgb(100%, 100%, 100%)"/></g><g clip-path="url(#azure-vpn_svg__b)" id="azure-vpn_svg__h" mask="url(#azure-vpn_svg__c)"><use href="#azure-vpn_svg__d"/></g><linearGradient gradientTransform="rotate(.086)scale(1.77778)" gradientUnits="userSpaceOnUse" id="azure-vpn_svg__g" x1="8.59" x2="9.12" y1="-7.79" y2="20.05"><stop offset=".22" stop-color="rgb(19.607843%, 83.137256%, 96.078432%)"/><stop offset=".47" stop-color="rgb(19.215687%, 81.960785%, 95.294118%)"/><stop offset=".63" stop-color="rgb(18.039216%, 78.823531%, 92.156863%)"/><stop offset=".77" stop-color="rgb(16.078432%, 72.941178%, 87.058824%)"/><stop offset=".89" stop-color="rgb(13.333334%, 64.705884%, 79.607844%)"/><stop offset="1" stop-color="rgb(9.803922%, 54.11765%, 70.19608%)"/><stop offset="1" stop-color="rgb(9.803922%, 54.11765%, 70.19608%)"/></linearGradient><filter height="100%" id="azure-vpn_svg__e" width="100%" x="0%" y="0%"><feColorMatrix color-interpolation-filters="sRGB" values="0 0 0 0 1 0 0 0 0 1 0 0 0 0 1 0 0 0 1 0"/></filter><image height="32" href="data:image/png;base64,iVBORw0KGgoAAAANSUhEUgAAACAAAAAgCAYAAABzenr0AAAABmJLR0QA/wD/AP+gvaeTAAAAWUlEQVRYhe3OMQ6AIBAF0YGYqKfw/sfyFHZihdmYaMfazDRAKP4DMzOznysv94xaHK3ABswJkAYcwA4whY8FWAePd8DZHxFQHufI7o2aMPaZAAECBAgQIOACnlcGOm+bUQAAAAAASUVORK5CYII=" id="azure-vpn_svg__f" width="32" x="0" y="0"/><mask id="azure-vpn_svg__c"><g filter="url(#azure-vpn_svg__e)"><use href="#azure-vpn_svg__f"/></g></mask></defs><path d="M26.773 15.414h-1.777V9.938c.016-2.57-.93-5.055-2.648-6.97A8.53 8.53 0 0 0 15.84 0a8.52 8.52 0 0 0-6.578 2.969 10.2 10.2 0 0 0-2.649 6.969v5.476H5.172a1.244 1.244 0 0 0-1.227 1.227v14.222a1.25 1.25 0 0 0 1.227 1.227h21.601a1.267 1.267 0 0 0 1.247-1.227V16.641a1.264 1.264 0 0 0-1.247-1.227m-5.992 0h-9.883V9.848a5.64 5.64 0 0 1 1.547-3.82 4.47 4.47 0 0 1 3.34-1.532 4.52 4.52 0 0 1 3.363 1.531c.207.239.399.493.567.766A5.3 5.3 0 0 1 20.8 9.832Zm0 0" fill="url(#azure-vpn_svg__g)"/><path d="M26.828 15.414H5.191c-.289 0-.566.11-.78.3l23.198 16c.282-.222.442-.562.446-.921V16.57a1.263 1.263 0 0 0-1.227-1.156" fill="rgb(31.37255%, 90.196079%, 100%)"/><use href="#azure-vpn_svg__h"/><path d="M13.867 18.844 16 16.71a.124.124 0 0 1 .16 0l2.117 2.133c.028.02.047.054.047.09s-.02.07-.047.09h-1.246a.105.105 0 0 0-.105.105v2.738a.11.11 0 0 1-.11.106h-1.402a.08.08 0 0 1-.082-.024.08.08 0 0 1-.023-.082V19.13a.126.126 0 0 0-.125-.106h-1.246a.11.11 0 0 1-.09-.066.11.11 0 0 1 .02-.113m4.39 9.742-2.117 2.117a.1.1 0 0 1-.078.035.1.1 0 0 1-.083-.035l-2.113-2.117a.1.1 0 0 1-.047-.09q0-.054.047-.086h1.242a.126.126 0 0 0 .125-.11v-2.753c0-.059.051-.106.11-.106h1.312c.059 0 .11.047.11.106V28.3c0 .058.047.11.105.11h1.246c.047-.04.117-.032.16.015.02.023.028.054.024.082a.12.12 0 0 1-.043.078m-8.356-2.754v-1.246a.1.1 0 0 0-.03-.074.1.1 0 0 0-.075-.032H7.109a.105.105 0 0 1-.105-.105v-1.266a.11.11 0 0 1 .004-.113.12.12 0 0 1 .101-.047h2.688a.105.105 0 0 0 .105-.105v-1.242a.13.13 0 0 1 .07-.102.12.12 0 0 1 .126.012l2.117 2.133a.11.11 0 0 1 0 .14l-2.117 2.137a.13.13 0 0 1-.125.008.12.12 0 0 1-.07-.098m12.32-4.23v1.242c0 .058.047.105.105.105h2.738s.125 0 .125.11v1.316a.13.13 0 0 1-.125.105h-2.738a.1.1 0 0 0-.074.032.1.1 0 0 0-.031.074v1.246a.11.11 0 0 1-.059.105.12.12 0 0 1-.121-.015l-2.113-2.137v-.14l2.113-2.133s.18-.02.18.09" fill="rgb(100%, 100%, 100%)"/></svg>
